!! 00033] TT[TB
!!    Hubei minge xuan
!! Zh. Ch. M-2850, M 82/5699), Peking: LP 33867/868)
!!!OTL: Shier yue hua
!!!ARE: Asia, China,ÿHubei, Yngshan
!! Ethnic Group: Han
!! I, 450
!!!SCT: C1025
!!!YEM: Copyright 1995, estate of Helmut Schaffrath.
**kern
*ICvox
*Ivox
*M2/4
*k[b-]
*F:
{16f
16f
16d
16f
8d
8cc
=1
16cc
16a
16a
16g
16f
16g
8f}
=2
{8f
4f
16d
16c
=3
8cc
16a
16cc
4g}
=4
{4.cc
16a
16cc
=5
4.dd
16a
16g
=6
8f
16c
16d
4f}
=7
{8f
16f
16d
4cc
=8
16.a
32cc
16a
16g
16f
16g
16f
16d
=9
2c}
=10
{16f
8c
16d
8f
8f}
=11
{4.cc
16a
16cc
=12
4.dd
16a
16g
=13
8f
16c
16d
4f}
=14
{8f
16f
16d
4c
=15
16.a
32cc
16a
16g
16f
16g
16f
16d
=16
2c}
==
!!!AGN: Xiaodiao, Caicha. Siji huahui
!! Plattenhuelle kopiert.
!!    Zwischen Phrase 4 und 5 rhythmisch gesprochenen Text weggelassen.
!!!ONB: ESAC (Essen Associative Code) Database: CHINA
!!!AMT: simple duple
!!!AIN: vox
!!!EED: Helmut Schaffrath
!!!EEV: 1.0
*-
